X:1
T:Come, My Way, My Truth, My Life
T:Text: George Herbert (1593-1633) Tune: Ralph Vaughan Williams (1872-1958)
T:77 77 THE CALL www.hymnary.org/text/come_my_way_my_truth_my_life
T:Come, My Way, My Truth, My Life
T:This hymn is in the public domain.  You may freely use this score for personal and congregational worship.  If you reproduce the score, please credit Hymnary.org as the source. 
T:This hymn is in the public domain.  You may freely use this score for personal and congregational worship.  If you reproduce the score, please credit Hymnary.org as the source. 
Z:This hymn is in the public domain.  You may freely use this score for personal and congregational worship.  If you reproduce the score, please credit Hymnary.org as the source.
%%score ( 1 2 3 ) ( 4 5 )
L:1/8
M:6/4
K:Eb
V:1 treble nm="Piano" snm="Pno."
V:2 treble 
V:3 treble 
V:4 bass nm="Piano" snm="Pno."
V:5 bass 
V:1
 E4 G2 | B4 B2 (c2 B2) A2 | B6 E4 G2 | B4 B2 (c2 B2) A2 | B6 [_GB-_d]4 [F-Bd]2 | %5
w: 3~Come, my|joy, my love, _ my|heart: such a|joy as none _ can|move; such a|
w: 1~Come, my|way, my truth, _ my|life: such a|way, as gives _ us|breath; such a|
w: 2~Come, my|light, my feast, _ my|strength: such a|light as shows _ a|feast; such a|
 [FA-c]4 [EAc]2 B4 [CA]2 | [EB]6 A4 A2 | G4 G2 (F2 G2 A2 | G2 F2 E2 [_DF]4) [CF]2 | [B,E]12 |] %10
w: love as none can|part; such a|heart as joys _ _|_ _ _ _ in|love.|
w: truth, as ends all|strife; such a|life as con- * *|* * * * quers|death.|
w: feast as mends in|length; such a|strength as makes _ _|_ _ _ _ his|guest.|
V:2
 E4 G2 | _D6 E6 | E4 _D2 E4 G2 | _D6 E6 | E4 _D2 x6 | x6 F6 | x6 F6 | E6 C6- | C6 x6 | x12 |] %10
V:3
 x6 | x12 | x12 | x12 | x12 | x6 E2 _D2 x2 | x12 | x12 | x12 | x12 |] %10
V:4
 E,4 G,2 | [B,,F,]6 [A,,A,]6 | [B,,F,]6 E,4 G,2 | [B,,F,]6 [A,,A,]6 | [B,,F,]6 [_G,,B,]6 | %5
 [A,,C]6 F,6 | [E,G,]6 _D4 C2 | [E,B,]6 [F,A,]6- | [F,A,]6 [B,,B,]6 | A,6 G,6 |] %10
V:5
 E,4 G,2 | x12 | x6 E,4 G,2 | x12 | x12 | x6 B,,4 F,2 | x6 _D,6 | x12 | x12 | E,12 |] %10

